X: 1
T: Lassaskar reinlendar
C: trad. efter Ivar Fuglestad
O: Bjerkreim, Norway
R: shottish
S: Fiddle Hell Online 20214-15 Vidar Skrede workshop
N: (learned from Siri Dyvik)
Z: 2021 John Chambers <jc:trillian.mit.edu>
M: 4/4
L: 1/8
K: Amix
(uAc) |:\
ve2e2 f3e | d2A2 G3A | d2(ud2 e)(vfe)ud |1vc2A2 A3c :|2 c2A2 A3u(A |
|: c)(vAc)ue va2(ua2 | {b}a)(vge)uf vg3e | f2e3 (vdB)uG | vA2(Ac) e3(uc |
e)(vAc)ue va2(ua2 | {b}a)(vge)uf vg3e | f2e3 (vdB)uG |1 vA2A2 A2A(A :|2 A2A2 A2 |]
